X:166
T:Union. THO5.166, The
T:New Russia Dance aka. THO5.166
M:2/4
L:1/8
B:Thompson's Complete Collection of 200 Favourite Dances Vol.5
F:https://www.libraryofdance.org/manuals/1780c-Thompson-Compleat-5.pdf
Z:vmp. Peter Dunk 2024
Q:1/4=130
K:A
E|:A>Bcd|e3e|fdfd|ecA>e|\\
fdfd |ecAd|c2TB2|A4:|
|:B2c2|B3A|B2 c2|B3A|\\
BcdB|efed|c2TB2 A4:|
|:{g}a2 ec|{g}a2 ec|d2 B>d|c2A2|\\
{g}a2 ec|{g}a2 ec|BABc|A4:|
W:
W:Turn your Partner with the right hand & cast off ./.
W:the 2nd Couple do the same ./:
W:Creoss over one Couple and turn :/.
W:lead through the bottom & cast up :/:
W:lead through the top & cast off ./:.
W:Right and Left :./:

